X:3
T:Douce dame jolie
C:Guillaume de Machaut
R:Chanson
Z:Transcrit et/ou corrigé par B@D - 2006-10-17
Z:Pour toute observation mailto:-@-
M:2/4
L:1/8
P:ABA
K:F
[P:A]d2 | d2G2 | F2G2 | BA2G | A2A2 | G2d2 | dc2B | BA2G | !breath!A2d2 |
G2G2 | F2G2 | BA2G | A2c2 | B3A | G2F2 | G4 |: [P:B]e2 | g2g2 | f2e2 |
d4 | dc2B | d4 | _ed c B |1 A2G2 | B2c2 | d4 :|2 A2G2 | AG2F | G4 |]

 

%%begintext
Gal en fa
%%endtext


%%header "$P0	 $IR 	$P1"
%%footer $D - Éditions Galouvielle - 2009 - À usage librement privé dans le cadre familial

